!!!!SEGMENT: pl-wtm--r-1447--003_stefani-jozef-spiewki-z-obrazku-dramatycznego-floryna-no-3.krn
!!!id: 18xx:2464
!!!COM: Stefani, Józef
!!!OTL: Śpiewki z Obrazku Dramatycznego Floryna – No. 3
!!!PDT:
!!!SMS-siglum: PL-Wtm
!!!SMS-shelfmark: R 1447
!!!NIFC-rismID: 1001116468
!!!URL-scan: http://repozytorium.nifc.pl/skany/pl-wtm-nut--r1447
!!!ONB-nifc: UWAGA: podział na pięć numerów (No. 1 – No. 5)
!!!SMS-variant:
!!!SMS-altvar:
**kern	**kern	**dynam	**kern	**text
*part2	*part2	*part2	*part1	*part1
*staff3	*staff2	*	*staff1	*staff1
*I"Piano	*I"Piano	*	*I"Floryna	*
*clefF4	*clefG2	*	*clefG2	*
*k[f#c#g#]	*k[f#c#g#]	*	*k[f#c#g#]	*
*M6/8	*M6/8	*	*M6/8	*
=1	=1	=1	=1	=1
*^	*	*	*	*
*2\right	*2\right	*2\right	*	*2\right	*
!	!	!	!	!LO:TX:t=P:problem:all\middle or right:global	!
!	!	!LO:DY:b:rj	!	!LO:TX:i:a:t=Allegro.	!
4.AA^>'>/	8AA\L	2.r	f	2.r	.
.	(>8E\	.	.	.	.
.	8A\J)	.	.	.	.
4.AA^>'>/	8AA\L	.	.	.	.
.	(>8E\	.	.	.	.
.	8A\J)	.	.	.	.
=2	=2	=2	=2	=2	=2
4.AA^>'>/	8AA\L	4r	.	4r	.
.	(>8E\	.	.	.	.
.	8A\J)	8r	.	8r	.
!	!	!	!LO:DY:b	!	!
4.AA'>/	8AA\L	4cc# 4e/	p	4cc#\	Już
.	(>8E\	.	.	.	.
.	8A\J)	8b 8d/	.	8b\	or-
=3	=3	=3	=3	=3	=3
*	*	*^	*	*	*
4.AA/	8AA\L	4a/	4.c#\	.	4a/	-kie-
.	8E\	.	.	.	.	.
.	8A\J	8e/	.	.	8e/	-stra
*rep	*rep	*	*	*	*	*
4.AA/	8AA\L	4cc# 4e/	4.ryy	.	4cc#\	się
.	8E\	.	.	.	.	.
.	8A\J	8b 8d/	.	.	8b\	od-
*Xrep	*Xrep	*	*	*	*	*
=4	=4	=4	=4	=4	=4	=4
4.AA/	8AA\L	4a/	4.c#\	.	4a/	-zy-
.	8E\	.	.	.	.	.
.	8A\J	8e/	.	.	8e/	-wa
4E\	4.ryy	4b 4g#/	4.ryy	.	4b\	I
8r	.	8ee 8e\	.	.	8ee\	wśród
*v	*v	*	*	*	*	*
*	*v	*v	*	*	*
!!LO:LB:g=original
=5	=5	=5	=5	=5
4A 4AA\	4cc# 4e/	.	4cc#\	na-
8r	8a/	.	8a/	-peł-
8F# 8FF#\	8a 8d#X 8B/	.	(<16a/LL	-nio-
.	.	.	32b/L	.
.	.	.	32a/JJJ	.
8r	8r	.	8g#/)	.
8r	8r	.	8a/	-nych
=6	=6	=6	=6	=6
*^	*	*	*	*
8E 8EE/	4.ryy	8g# 8e 8B/	.	8b\	sal,
8r	.	8r	.	8r	.
8r	.	8r	.	8r	.
4.AA'>/	8AA\L	4cc# 4e/	.	4cc#\	Cze-
.	(>8E\	.	.	.	.
.	8A\J)	8b 8d/	.	8b\	-go
=7	=7	=7	=7	=7	=7
*	*	*^	*	*	*
4.AA'>/	8AA\L	4a/	4.c#\	.	4a/	nikt
.	(>8E\	.	.	.	.	.
.	8A\J)	8e/	.	.	8e/	się
4.AA'>/	8AA\L	4cc# 4e/	4.ryy	.	4cc#\	nie
.	(>8E\	.	.	.	.	.
.	8A\J)	8b 8d/	.	.	8b\	spo-
=8	=8	=8	=8	=8	=8	=8
4.AA'>/	8AA\L	4a/	4.c#\	.	4a/	-dzie-
.	(>8E\	.	.	.	.	.
.	8A\J)	8e/	.	.	8e/	-wa
8AA/	4.ryy	8a 8c#/	4.ryy	.	(<16a/LL	Król
.	.	.	.	.	32b/L	.
.	.	.	.	.	32a/JJJ	.
8r	.	8r	.	.	8g#/)	.
8r	.	8r	.	.	8a/	chce
*v	*v	*	*	*	*	*
*	*v	*v	*	*	*
!!LO:LB:g=original
=9	=9	=9	=9	=9
!	!LO:TX:t=P:problem:rytm: 16 poprawiona na 8	!	!	!
8D 8DD/	8f# 8d 8A^>/	.	4ff#\	ze
8r	8r	.	.	.
8r;>	8r;>	.	16f#/	mną
.	.	.	16r;>	.
8EL 8EE\	8eL 8c# 8A/	.	4e/	za-
8r	8r	.	.	.
8EJ 8EE\	8g#J 8d 8B/	.	8g#/	-cząć
=10	=10	=10	=10	=10
4E 4AA\	4a 4c# 4A/	.	4a/	bal.
8r	8r	.	8r	.
4r	(>16bb\LL	.	(<16b/LL	Ja-
.	16aa\J	.	16a/J	.
.	8gg#\)	.	8g#/J)	.
8r	8aa'>\J	.	8a/	-ka
=11	=11	=11	=11	=11
*^	*	*	*	*
4.AA/	8AA\L	(>4fff# 4ff#\	.	4ff#\	ra-
.	8A 8F# 8D\	.	.	.	.
.	8AJ 8F# 8D\	8ddd 8dd\)	.	8dd\	-dość,
*rep	*rep	*	*	*	*
4.AA/	8AA\L	(>16bb\LL	.	(<16b/LL	co
.	.	16aa\J	.	16a/J	.
.	8A 8F# 8D\	8gg#\)	.	8g#/J)	.
.	8AJ 8F# 8D\	8aa'>\J	.	8a/	za
*Xrep	*Xrep	*	*	*	*
=12	=12	=12	=12	=12	=12
4.AA/	8AA\L	(>4eee 4ee\	.	4ee\	mi-
.	8A 8E 8C#\	.	.	.	.
.	8AJ 8E 8C#\	8ccc# 8cc#\)	.	8cc#\	-na
*rep	*rep	*	*	*	*
4.AA/	8AA\L	4r	.	(<16b/LL	w gro-
.	.	.	.	16a/J	.
.	8A 8E 8C#\	.	.	8g#/J)	.
.	8AJ 8E 8C#\	8r	.	8a/	-nie
*Xrep	*Xrep	*	*	*	*
*v	*v	*	*	*	*
!!LO:LB:g=original
=13	=13	=13	=13	=13
8BB 8BBB/	8dd 8g#X 8e/	.	4dd\	Ko-
8r	8r	.	.	.
8r	8r	.	8e/	-biet
8AAL 8AAA/	8cc#L 8a 8e/	.	4cc#\	ia-
8r	8r	.	.	.
8C#J 8CC#/	8aJ 8e/	.	8a/	-ki
=14	=14	=14	=14	=14
!	!	!LO:DY:b:rj	!	!
8E 8EE/	8ee 8g# 8e\	f	8ee\	wrzask
!	!LO:TX:t=P:problem:usunięte 8r 8r 4r 8r	!	!	!
16E\LL	(>16B<LL 16G#</	.	8r	.
16D#X\	16cn< 16A</	.	.	.
16E\	16B< 16G#</	.	8r	.
16D#\JJ	16c<JJ 16A</	.	.	.
16E\LL	16B<LL 16G#</	.	4r	.
16D#\	16c< 16A</	.	.	.
16E\	16B< 16G#</	.	.	.
16D#\	16c< 16A</	.	.	.
16E\	16B< 16G#</	.	8r	.
16D#\JJ	16c<JJ 16A</)	.	.	.
=15	=15	=15	=15	=15
8E\	8B< 8G#</	.	4r	.
8r	8r	.	.	.
8r	8r	.	8r	.
!	!	!LO:DY:b:rj	!	!
(<32qqB/LLL	32qqb/LLL	f	.	.
32qqc#/	32qqcc#/	.	.	.
32qqd#X/JJJ	32qqdd#X/JJJ	.	.	.
8e\)	8ee\	.	4r	.
8r	8r	.	.	.
8r	8r	.	8b\	Że
!!LO:PB:g=original
=16	=16	=16	=16	=16
!	!	!LO:DY:b:rj	!	!
8D#X 8DD#X/	8a 8f# 8B/	p	4b/	Ja-
8r	8r	.	.	.
8r	8r	.	8f#/	-kaś
8D# 8DD#/	8a 8f# 8B/	.	8f#/	ob-
8r	8r	.	8g#/	-ca
8r	8r	.	8a/	dzie-
=17	=17	=17	=17	=17
4E 4EE/	4g# 4e 4B/	.	(<4g#/	-wczy-
8r	8r	.	8b/)	.
4r	4r	.	8b/	-na
.	.	.	8b/	Do-
8r	8r	.	8cc#/	-stą-
=18	=18	=18	=18	=18
4D#X 4DD#X/	4a 4f# 4B/	.	4b/	-pi-
8r	8r	.	8f#/	-ła
8D# 8DD#/	8a 8f# 8B/	.	8f#/L	ta-
.	.	.	(<8qa\	.
8r;>	8r;>	.	8.g#;>/J)	.
8r	8r	.	.	.
.	.	.	16f#/	-kich
!!LO:LB:g=original
=19	=19	=19	=19	=19
*^	*	*	*	*
8E 8EE\	4.ryy	16g# 16e 16B/	.	8e/	łask,
.	.	(<16e/LL	.	.	.
8r	.	16f#/	.	8r	.
.	.	16g#/	.	.	.
8r	.	16a/	.	8r	.
.	.	16b/JJ)	.	.	.
4.AA'>/	8AA\L	4cc# 4e/	.	4cc#\	Wtem
.	(>8E\	.	.	.	.
.	8A\J)	8b 8d/	.	8b\	do
=20	=20	=20	=20	=20	=20
*	*	*^	*	*	*
4.AA/	8AA\L	4a/	4.c#\	.	4a/	tań-
.	(>8E\	.	.	.	.	.
.	8A\J)	8e/	.	.	8e/	-ca
*rep	*rep	*	*	*	*	*
4.AA/	8AA\L	4cc# 4e/	4.ryy	.	4cc#\	znak
.	(>8E\	.	.	.	.	.
.	8A\J)	8b 8d/	.	.	8b\	już
*Xrep	*Xrep	*	*	*	*	*
=21	=21	=21	=21	=21	=21	=21
4.AA/	8AA\L	4a/	4.c#\	.	4a/	da-
.	(>8E\	.	.	.	.	.
.	8A\J)	8e/	.	.	8e/	-no,
4E\	4.ryy	4b 4g#/	4.ryy	.	4b\	Choć
8r	.	8ee 8e/	.	.	8ee\	ze
*v	*v	*	*	*	*	*
*	*v	*v	*	*	*
=22	=22	=22	=22	=22
4A 4AA\	4cc# 4e/	.	4cc#\	stra-
8r	8a/	.	8a/	-chu
8F# 8FF#\	8a 8d#X 8B/	.	(<16a/LL	bie-
.	.	.	32b/	.
.	.	.	32a/JJ	.
8r	8r	.	8g#/)	.
8r	8r	.	8a/	-dna
!!LO:LB:g=original
=23	=23	=23	=23	=23
*^	*	*	*	*
8E 8EE\	4.ryy	8g# 8e 8B/	.	4b\	drzę,
8r	.	8r	.	.	.
8r	.	8r	.	8r	.
4.AA'>/	8AA\L	4cc# 4e/	.	4cc#\	Me-
.	(>8E\	.	.	.	.
.	8A\J)	8b 8d/	.	8b\	-nu-
=24	=24	=24	=24	=24	=24
*	*	*^	*	*	*
4.AA/	8AA\L	4a/	4.c#\	.	4a/	-e-
.	(>8E\	.	.	.	.	.
.	8A\J)	8e/	.	.	8e/	-ta
*rep	*rep	*	*	*	*	*
4.AA/	8AA\L	4cc# 4e/	4.ryy	.	4cc#\	gdy
.	(>8E\	.	.	.	.	.
.	8A\J)	8b 8d/	.	.	8b\	za-
*Xrep	*Xrep	*	*	*	*	*
=25	=25	=25	=25	=25	=25	=25
4.AA/	8AA\L	4a/	4.c#\	.	4a/	-gra-
.	(>8E\	.	.	.	.	.
.	8A\J)	8e/	.	.	8e/	-no
8F# 8FF#\	4.ryy	8a 8c#/	4.ryy	.	(<16b/LL	Tak
.	.	.	.	.	16a/J	.
8r	.	8r	.	.	8g#/	.
8r	.	8r	.	.	8a|</J)	iak
*v	*v	*	*	*	*	*
*	*v	*v	*	*	*
=26	=26	=26	=26	=26
8D 8DD\	8f# 8d 8A/	.	4ff#\	mo-
8r	8r	.	.	.
8r;>	8r;>	.	16f#/	-gę
.	.	.	16r;>	.
8EL 8EE\	8eL 8c# 8A/	.	4e/	trzy-
8r	8r	.	.	.
8EJ 8EE\	8g#J 8d 8B/	.	8g#/	-mam
*Xkcancel	*Xkcancel	*	*Xkcancel	*
!!LO:LB:g=original
=27	=27	=27	=27	=27
8E 8AA\	8a 8c# 8A/	.	8a/	się.
8r	8r	.	8r	.
8r	8r	.	8r	.
8Fn 8FFn\	8a 8d#X 8B/	.	4r	.
8r	8r	.	.	.
8r	8r	.	8r	.
=28	=28	=28	=28	=28
8E 8EE\	8g# 8e 8B/	.	2.r;>	.
8r	8r	.	.	.
8r	8r	.	.	.
!	!	!LO:DY:b:rj	!	!
4E 4EE/	4ee 4b 4g# 4e/	f	.	.
!LO:TX:i:a:t=V&colon; S&colon;	!	!	!	!
8r;>	8r;>	.	.	.
*Xkcancel	*Xkcancel	*	*Xkcancel	*
!!LO:PB:g=original
=29||	=29||	=29||	=29||	=29||
*k[]	*k[]	*	*k[]	*
*M4/4	*M4/4	*	*M4/4	*
*met(c)	*met(c)	*	*met(c)	*
!LO:TX:t=P:problem:brak kasowników	!LO:TX:t=P:problem:brak kasowników	!	!LO:TX:i:a:t=Andantino.	!
!	!	!	!LO:TX:t=P:problem:brak kasowników	!
2r	2r	.	2r	.
!	!	!LO:DY:b:rj	!	!
4A 4AA\	(>4cc 4a 4e'>/	p	4cc\	la
4A 4AA\	4b 4e 4d'>/	.	4b\	la
=30	=30	=30	=30	=30
*2\right	*	*	*2\right	*
2A 2AA\	2a 2e 2c/)	.	2ee\	la
4A 4AA\	(>4cc 4a 4e'>/	.	4cc\	la
4A 4AA\	4b 4e 4d'>/	.	4b\	la
=31	=31	=31	=31	=31
2A 2AA\	2a 2e 2c/)	.	2ee\	la
2A 2AA\	2g 2e 2c#X/	.	8.ee\	la
*	*	*	*	*ij
.	.	.	16ee\	la
.	.	.	8.ee\	la
.	.	.	16ee\	la
*	*	*	*	*Xij
!!LO:LB:g=original
=32	=32	=32	=32	=32
2D\	4..f 4..d/	.	(>4ee\	la
.	.	.	8.dd\)	.
.	16b 16f 16d/	.	16b\	la
4E\	4a 4e 4c/	.	4a\	la
4E 4EE\	4g#X 4e 4B/	.	4bt>\	la
=33	=33	=33	=33	=33
2A 2AA\	2a 2e 2c/	.	2cc\	la
4A 4AA\	(>4cc 4a 4e'>/	.	4cc\	la
4A 4AA\	4b 4e 4d'>/	.	4b\	la
=34	=34	=34	=34	=34
2A 2AA\	2a 2e 2c/)	.	2ee\	la
!	!LO:TX:t=P:problem:poprawiony akord	!	!	!
4A 4AA\	(>4cc 4a 4e'>/	.	4cc\	la
4A 4AA\	4b 4e 4d'>/	.	4b\	la
=35	=35	=35	=35	=35
2A 2AA\	2a 2e 2c/)	.	2ee\	la
!	!LO:TX:t=P:problem:poprawiony akord	!	!	!
2G 2GG\	2b-X 2e 2c#X^>/	.	8.ee\	la
*	*	*	*	*ij
.	.	.	16ee\	la
.	.	.	8.ee\	la
.	.	.	16ee\	la
*	*	*	*	*Xij
!!LO:LB:g=original
=36	=36	=36	=36	=36
4..F 4..FF\	4..a 4..d/	.	(>4ff\	la
.	.	.	8.dd\)	.
16D 16DD/	16b 16f 16d/	.	16b\	la
4E 4EE/	4a 4e 4c/	.	4ee\	la
4E 4EE/	4g#X 4e 4B/	.	4g#Xt>/	la
.	.	.	(<16qqf#X/LL	.
.	.	.	16qqg#/JJ)	.
=37||	=37||	=37||	=37||	=37||
*k[f#c#g#]	*k[f#c#g#]	*	*k[f#c#g#]	*
*M6/8	*M6/8	*	*M6/8	*
!	!	!	!LO:TX:i:a:t=Allegro.	!
8E 8AA\	8a 8cn/	.	8a/	la
8r	8r	.	8r	.
!	!	!LO:HP:a	!	!
8r	8r	<	8r	.
8Fn 8FFn\	8a 8d#X 8B/	.	4r	.
8r	8r	.	.	.
8r	8r	[[	8r	.
=38	=38	=38	=38	=38
*^	*	*	*	*
!	!	!	!LO:DY:b:rj	!	!
8E 8EE\	4.ryy	16g# 16e 16B/	f	4r	.
.	.	(<16e/LL	.	.	.
8r	.	16f#/	.	.	.
.	.	16g#/	.	.	.
8r	.	16a/	.	8r	.
.	.	16b/JJ)	.	.	.
4.AA'>/	8AA\L	4cc# 4e/	.	4cc#\	Już
.	(>8E\	.	.	.	.
.	8A\J)	8b 8d/	.	8b\	po-
!!LO:LB:g=original
=39	=39	=39	=39	=39	=39
*	*	*^	*	*	*
4.AA'>/	8AA\L	4a/	4.c#\	.	4a/	-ty-
.	(>8E\	.	.	.	.	.
.	8A\J)	8e/	.	.	8e/	-kam
4.AA'>/	8AA\L	4cc# 4e/	4.ryy	.	4cc#\	się
.	(>8E\	.	.	.	.	.
.	8A\J)	8b 8d/	.	.	8b\	raz
=40	=40	=40	=40	=40	=40	=40
4.AA'>/	8AA\L	4a/	4.c#\	.	4a/	dru-
.	(>8E\	.	.	.	.	.
.	8A\J)	8e/	.	.	8e/	-gi
4E 4EE\	4.ryy	4b 4g#/	4.ryy	.	4b\	Ni-
8r	.	8ee 8e\	.	.	8ee\	-gdy
*v	*v	*	*	*	*	*
*	*v	*v	*	*	*
=41	=41	=41	=41	=41
4A 4AA\	4cc# 4e/	.	4cc#\	mi
8r	8a/	.	8a/	tak
8F# 8FF#\	8a 8d#X 8B/	.	(<16a/LL	źle
.	.	.	32b/L	.
.	.	.	32a/JJ	.
8r	8r	.	8g#/J)	.
8r	8r	.	8a/	nie
=42	=42	=42	=42	=42
*^	*	*	*	*
8E 8EE\	4.ryy	8g# 8e 8B/	.	4b/	szło,
8r	.	8r	.	.	.
8r	.	8r	.	8r	.
4.AA'>/	8AA\L	4cc# 4e/	.	4cc#/	Bo
.	(>8E\	.	.	.	.
.	8A\J)	8b 8d/	.	8b/	też
!!LO:PB:g=original
=43	=43	=43	=43	=43	=43
*	*	*^	*	*	*
4.AA/	8AA\L	4a/	4.c#\	.	4a/	tań-
.	(>8E\	.	.	.	.	.
.	8A\J)	8e/	.	.	8e/	-czyć
*rep	*rep	*	*	*	*	*
4.AA/	8AA\L	4cc# 4e/	4.ryy	.	4cc#\	w su-
.	(>8E\	.	.	.	.	.
.	8A\J)	8b 8d/	.	.	8b\	-kni
*Xrep	*Xrep	*	*	*	*	*
=44	=44	=44	=44	=44	=44	=44
4.AA'>/	8AA\L	4a/	4.c#\	.	4a/	dłu-
.	(>8E\	.	.	.	.	.
.	8A\J)	8e/	.	.	8e/	-giej
8F# 8FF#/	4.ryy	8a 8c#/	4.ryy	.	16b/LL	Nie
.	.	.	.	.	16a/J	.
8r	.	8r	.	.	8g#/J	.
8r	.	8r	.	.	8a/	wiem
*v	*v	*	*	*	*	*
*	*v	*v	*	*	*
=45	=45	=45	=45	=45
4D 4DD/	4f# 4d 4A/	.	4ff#\	czy
!	!	!	!LO:TX:t=P:problem:wyraz "kto" poprawiony na sylabę "po-"	!
8r	8r	.	8f#/	po-
8EL 8EE\	8eL 8c# 8A/	.	4e/	-tra-
8r	8r	.	.	.
8EJ 8EE\	8g#J 8e 8d 8B/	.	8g#/	-fi
=46	=46	=46	=46	=46
4E 4AA\	4a 4e 4c# 4A/	.	4a/	Kto
8r	8r	.	8r	.
!	!	!LO:DY:b:rj	!	!
4r	(<16b/LL	f	4r	.
.	16a/J	.	.	.
.	8g#/	.	.	.
8r	8a/J)	.	8r	.
!!LO:LB:g=original
=47	=47	=47	=47	=47
!LO:TX:t=P:problem:takt po poprawkach głównego skryptora	!	!	!	!
4A 4F# 4D\	4ff# 4f#^</	.	2.r	.
8r	8f#/	.	.	.
4c# 4A 4E\	8e'</L	.	.	.
.	(<8cc#/	.	.	.
8d 8G# 8E\	8b/J)	.	.	.
=48	=48	=48	=48	=48
4c# 4A\	4a/	.	4r	.
8r	8r	.	8r	.
4r	(>16bb\LL	.	(<16b/LL	To
.	16aa\J	.	16a/J	.
.	8gg#\	.	8g#/J)	.
8r	8aa'>\J)	.	8a/	nie
=49	=49	=49	=49	=49
*^	*	*	*	*
4.AA/	8AA\L	(>4fff# 4ff#\	.	4ff#\	w na-
.	8A 8F# 8D\	.	.	.	.
.	8AJ 8F# 8D\	8ddd 8dd\)	.	8dd\	-szem
*rep	*rep	*	*	*	*
4.AA/	8AA\L	(>16bb\LL	.	(<16b/LL	hucz-
.	.	16aa\J	.	16a/J	.
.	8A 8F# 8D\	8gg#\)	.	8g#/J)	.
.	8AJ 8F# 8D\	8aa'>\J	.	8a/	-nem
*Xrep	*Xrep	*	*	*	*
=50	=50	=50	=50	=50	=50
4.AA/	8AA\L	(>4eee 4ee\	.	4ee\	Ko-
.	8A 8E 8C#\	.	.	.	.
.	8AJ 8E 8C#\	8ccc# 8cc#\)	.	8cc#\	-le
*rep	*rep	*	*	*	*
4.AA/	8AA\L	4r	.	4a/	Tam
.	8A 8E 8C#\	.	.	.	.
.	8AJ 8E 8C#\	8r	.	8a/	nie
*Xrep	*Xrep	*	*	*	*
*v	*v	*	*	*	*
!!LO:LB:g=original
=51	=51	=51	=51	=51
8BB 8BBB/	8dd 8g# 8e/	.	4dd\	ta-
8r	8r	.	.	.
8r	8r	.	8e/	-kie
8AAL 8AAA/	8cc#L 8a 8e/	.	4cc#\	nu-
8r	8r	.	.	.
8C#J 8CC#/	8aJ 8e/	.	8a/	-dy
=52	=52	=52	=52	=52
*^	*	*	*	*
!	!	!	!LO:DY:b:rj	!	!
8E 8EE/	4.ryy	8ee 8b 8g# 8e\	f	8ee\	są
8r	.	8r	.	8r	.
8r	.	8r	.	8r	.
!	!	!	!LO:DY:b:rj	!	!
4.AA'>/	8AA\L	4cc# 4e/	p	4cc#\	Na-
.	(>8E\	.	.	.	.
.	8A\J)	8b 8d/	.	8b\	-szych
=53	=53	=53	=53	=53	=53
*	*	*^	*	*	*
4.AA'>/	8AA\L	4a/	4.c#\	.	4a/	ba-
.	(>8E\	.	.	.	.	.
.	8A\J)	8e/	.	.	8e/	-lów
*rep	*rep	*	*	*	*	*
4.AA'>/	8AA\L	4cc# 4e/	4.ryy	.	4cc#\	tań-
.	(>8E\	.	.	.	.	.
.	8A\J)	8b 8d/	.	.	8b\	-ce
*Xrep	*Xrep	*	*	*	*	*
=54	=54	=54	=54	=54	=54	=54
4.AA'>/	8AA\L	4a/	4.c#\	.	4a/	wo-
.	(>8E\	.	.	.	.	.
.	8A\J)	8e/	.	.	8e/	-le,
8F# 8FF#\	4.ryy	8a 8c#/	4.ryy	.	(<16b/LL	o-
.	.	.	.	.	16a/J	.
8r	.	8r	.	.	8g#/J)	.
8r	.	8r	.	.	8a/	-ne
*v	*v	*	*	*	*	*
*	*v	*v	*	*	*
!!LO:LB:g=original
=55	=55	=55	=55	=55
4D 4DD/	4f# 4d 4A^>/	.	4ff#\	du-
8r	8r	.	8f#/	-szą
8EL 8EE\	8eL 8c# 8A/	.	4e/	no-
8r	8r	.	.	.
8EJ 8EE\	8g#J 8d 8B/	.	8g#/	-gi
=56||	=56||	=56||	=56||	=56||
*k[f#c#g#]	*k[f#c#g#]	*	*k[f#c#g#]	*
*M4/4	*M4/4	*	*M4/4	*
*met(c)	*met(c)	*	*met(c)	*
4E 4AA\	4a 4c# 4A/	.	4a/	rwą!
!LO:N:vis=8	!	!	!	!
4r;>	8r;>	.	8r;>	.
!	!LO:TX:t=P:problem:łuk kończy się za kreską taktową	!	!LO:TX:i:a:t=Allegretto	!
.	(>8ee 8e'>\	.	8e/	Tam
!LO:N:vis=8	!	!	!	!
4r	8ff#L 8f#'>\	.	8f#/	wła-
.	8gg# 8g#'>\	.	8g#/	-da
4r	8aa 8a'>\	.	8a/	szcze-
!	!LO:TX:a:i:t=V&colon; S&colon;	!	!	!
.	8bbJ 8b'>\)	.	8b/	-ry
!!LO:PB:g=original
=57	=57	=57	=57	=57
!	!	!LO:DY:b:rj	!	!
.	(<16qqaa/LL	p	.	.
.	16qqbb/JJ	.	.	.
8EL 8AA/	4.ccc#\)	.	4.cc#\	śmiech
8E 8AA/	.	.	.	.
8E 8AA/	.	.	.	.
8EJ 8AA/	8ccc# 8cc#\	.	8cc#\	Wpo-
8EL 8D 8AA/	8bbL 8b\	.	8b\	-śród
8E 8D 8AA/	8aa 8a\	.	8a/	tan-
8E 8D 8AA/	8gg# 8g#\	.	8g#/	-ce-
8EJ 8D 8AA/	8bbJ 8b\	.	8b/	-rzy
=58	=58	=58	=58	=58
8EL 8C# 8AA/	4ee 4e/	.	4e/	zmian
8E 8C# 8AA/	.	.	.	.
8EJ 8C# 8AA/	8r	.	8r	.
8r	8ee 8e/	.	8e/	I
2r	8ff#L 8f#\	.	8f#/	choć
.	8gg# 8g#\	.	8g#/	od-
.	8aa 8a\	.	8a/	-bie-
.	8bbJ 8b\	.	8b/	-ra
=59	=59	=59	=59	=59
.	(<16qqaa/LL	.	.	.
.	16qqbb/JJ	.	.	.
*tremolo	*	*	*	*
8EL 8AA/	4.ccc#\)	.	4.cc#\	dech
8E 8AA/	.	.	.	.
8E 8AA/	.	.	.	.
8EJ 8AA/	8ccc# 8cc#\	.	8cc#\	nasz
8EL 8D 8AA/	8bbL 8b\	.	8b\	pe-
8E 8D 8AA/	8aa 8a\	.	8a/	-łen
8E 8D 8AA/	8gg# 8g#\	.	8g#/	ży-
8EJ 8D 8AA/	8bbJ 8b\	.	8b/	-cia
!!LO:LB:g=original
=60	=60	=60	=60	=60
8EL 8C# 8AA/	4ee 4e/	.	4e/	tan
8E 8C# 8AA/	.	.	.	.
8E 8C# 8AA/	8r	.	8r	.
8EJ 8C# 8AA/	8e/	.	8e/	Nie-
*Xtremolo	*	*	*	*
(<16C#LL 16AA/	8c#/L	.	8c#/	-zna-
16E/	.	.	.	.
16C# 16AA/	8e/	.	8e/	-ny
16E/JJ	.	.	.	.
16C#LL 16AA/	8a/J	.	8a/	nam
16E/	.	.	.	.
16D 16EE/	(<16cc#/LL	.	16cc#/LL	iest
16E/JJ)	16b/JJ)	.	16b/JJ	.
=61	=61	=61	=61	=61
!LO:TX:t=P:problem:łuk	!	!	!LO:TX:t=P:problem:tekst: "dech" poprawione na "gniew"	!
(<16C#LL 16AA/	4.a/	.	4.a/	gniew
16E/	.	.	.	.
16C# 16AA/	.	.	.	.
16E/JJ	.	.	.	.
*rep	*	*	*	*
16C#LL 16AA/	.	.	.	.
16E/	.	.	.	.
16C# 16AA/	8e/	.	8e/	O
16E/JJ)	.	.	.	.
*Xrep	*	*	*	*
*rep	*	*	*	*
!LO:TX:t=P:problem:łuk	!	!	!	!
(<16C#LL 16AA/	8c#/L	.	8c#/	ja-
16E/	.	.	.	.
16C# 16AA/	8e/	.	8e/	-kiś
16E/JJ	.	.	.	.
*Xrep	*	*	*	*
16C#LL 16AA/	8a/J	.	8a/	nę-
16E/	.	.	.	.
16D 16EE/	(<16cc#/LL	.	16cc#/LL	-dzny
16E/JJ)	16b/JJ)	.	16b/JJ	.
=62	=62	=62	=62	=62
*^	*	*	*	*
!LO:TX:t=P:problem:łuk	!	!	!	!	!
(<16C#LL 16AA/	2ryy	4a/	.	4a/	fiok,
16E/	.	.	.	.	.
16C# 16AA/	.	.	.	.	.
16E/JJ	.	.	.	.	.
*rep	*	*	*	*	*
16C#LL 16AA/	.	8r	.	8r	.
16E/	.	.	.	.	.
16C# 16AA/	.	8a/	.	8a/	Jak
16E/JJ)	.	.	.	.	.
*Xrep	*	*	*	*	*
!	!	!	!LO:DY:b:rj	!	!
.	.	(<16qqa/LL	f	(<16qqa/LL	.
.	.	16qqb/JJ	.	16qqb/JJ	.
!	!	!	!LO:DY:b:rj	!	!
4.C#/	4.AA\	8cc#/L)	p	8cc#|</L)	ie-
.	.	8b/	.	8b|</	-dna
.	.	8a/	.	8a|</	wszyst-
8E/	8C# 8AA\	8g#/J	.	8g#|</J	-ka
*v	*v	*	*	*	*
!!LO:LB:g=original
=63	=63	=63	=63	=63
*tremolo	*	*	*	*
8F#L 8D\	4.f# 4.d/	.	4.f#/	Krew
8F# 8D\	.	.	.	.
8F# 8D\	.	.	.	.
8F#J 8D\	8dd 8b 8f#/	.	8dd\	bo
8EL 8EE/	8cc#L 8a 8e/	.	8cc#\	nie
8E 8EE/	8cc#J 8a 8e/	.	8cc#\	ma
8E 8EE/	8bL 8g# 8e/	.	8b\	sta-
8EJ 8EE/	8bJ 8g# 8e/	.	8b\	-rych
*Xtremolo	*	*	*	*
=64	=64	=64	=64	=64
(<16AA/LL	4.a 4.e 4.c#/	.	4a/	Kwok.
16E/	.	.	.	.
16C# 16AA/	.	.	.	.
16E/JJ	.	.	.	.
16C#LL 16AA/	.	.	4r	.
16E/	.	.	.	.
16C# 16AA/	8ccc# 8cc#\	.	.	.
16E/JJ)	.	.	.	.
!LO:TX:t=P:problem:łuk	!	!	!	!
(<16DLL 16AA/	8bbL 8b\	.	2r	.
16E/	.	.	.	.
16D 16AA/	8ee 8e\	.	.	.
16E/JJ	.	.	.	.
*rep	*	*	*	*
16DLL 16AA/	8ee 8e\	.	.	.
16E/	.	.	.	.
16D 16AA/	8eeJ 8e\	.	.	.
16E/JJ)	.	.	.	.
*Xrep	*	*	*	*
=65	=65	=65	=65	=65
16C#LL 16AA/	8.ccc#L 8.cc#\	.	1r	.
16E/	.	.	.	.
16C# 16AA/	.	.	.	.
16E/JJ	16bbK 16b\	.	.	.
*rep	*	*	*	*
16C#LL 16AA/	8aa 8a\	.	.	.
16E/	.	.	.	.
16C# 16AA/	8aaJ 8a\	.	.	.
16E/JJ	.	.	.	.
*Xrep	*	*	*	*
16DLL 16AA/	8bbL 8b\	.	.	.
16E/	.	.	.	.
16D 16AA/	8ee 8e\	.	.	.
16E/JJ	.	.	.	.
*rep	*	*	*	*
16DLL 16AA/	8ee 8e\	.	.	.
16E/	.	.	.	.
16D 16AA/	8eeJ 8e\	.	.	.
16E/JJ	.	.	.	.
*Xrep	*	*	*	*
!!LO:LB:g=original
=66	=66	=66	=66	=66
!LO:TX:t=P:problem:łuk	!	!	!	!
(<16C#LL 16AA/	4.aa 4.a\	.	1r	.
16E/	.	.	.	.
16C# 16AA/	.	.	.	.
16E/JJ	.	.	.	.
*rep	*	*	*	*
16C#LL 16AA/	.	.	.	.
16E/	.	.	.	.
16C# 16AA/	8ccc# 8cc#\	.	.	.
16E/JJ)	.	.	.	.
*Xrep	*	*	*	*
!LO:TX:t=P:problem:łuk	!	!	!	!
(<16DLL 16AA/	8bbL 8b\	.	.	.
16E/	.	.	.	.
16D 16AA/	8ee 8e\	.	.	.
16E/JJ	.	.	.	.
*rep	*	*	*	*
16DLL 16AA/	8ee 8e\	.	.	.
16E/	.	.	.	.
16D 16AA/	8eeJ 8e\	.	.	.
16E/JJ)	.	.	.	.
*Xrep	*	*	*	*
=67	=67	=67	=67	=67
*rep	*	*	*	*
(<16C#LL 16AA/	8.ccc#L 8.cc#\	.	1r	.
16E/	.	.	.	.
16C# 16AA/	.	.	.	.
16E/JJ	16bbK 16b\	.	.	.
16C#LL 16AA/	8aa 8a\	.	.	.
16E/	.	.	.	.
16C# 16AA/	8aaJ 8a\	.	.	.
16E/JJ)	.	.	.	.
(<16DLL 16AA/	8bbL 8b\	.	.	.
16E/	.	.	.	.
16D 16AA/	8ee 8e\	.	.	.
16E/JJ	.	.	.	.
16DLL 16AA/	8ee 8e\	.	.	.
16E/	.	.	.	.
16D 16AA/	8eeJ 8e\	.	.	.
16E/JJ)	.	.	.	.
*Xrep	*	*	*	*
=68	=68	=68	=68	=68
8C# 8AA/	8aa 8a\	.	1r	.
!	!	!LO:DY:b:rj	!	!
8A\L	8a'>\L	f	.	.
8c#\	(>8cc#\	.	.	.
8f#\J	8ff#\J)	.	.	.
8d#X\L	(>8dd#X\L	.	.	.
8e\	8ee\)	.	.	.
8c#\	8cc#'>\	.	.	.
8A\J	8a'>\J	.	.	.
=69	=69	=69	=69	=69
4E\	4e/	.	1r	.
4r	4aa 4ee 4cc# 4a\	.	.	.
4E 4EE/	4r	.	.	.
4r	4gg# 4ee 4dd 4b\	.	.	.
=70	=70	=70	=70	=70
4A 4AA\	4aa 4ee 4cc# 4a\	.	1r	.
4AA/	4A/	.	.	.
2r	2r	.	.	.
==	==	==	==	==
*-	*-	*-	*-	*-
!!!system-decoration: (s1){(s2,s3)}
!!!RDF**kern: | = vertical stroke
!!!RDF**kern: > = above
!!!RDF**kern: < = below
!!!ENC: Katarzyna Serwa
!!!END: 2021-07-05
!!!EED: Antoni Szymański
!!!EST: 2021-07-11
